!!!!SEGMENT: pl-kk--kk-i-3--016-003_anonim--de-eclecta-agnus-dei.krn
!!!cenid: 15xx:623
!!!COM: Anonim
!!!COM-rismid: pe30004985
!!!CDT:
!!!CNT:
!!!OPR: De eclecta
!!!OTL: Agnus Dei
!!!OMV: 003
!!!PDT:
!!!AGN:
!!!SMS-siglum: PL-Kk
!!!SMS-shelfmark: Kk.I.3
!!!SMS-shelfwork: 016-003 M
!!!SMS-variant:
!!!SMS-altvar:
!!!NIFC-rismid: 1001145493
!!!URL-scan: http://repozytorium.nifc.pl/skany/pl-kk-nut--i-3
!!!ONB-nifc: UWAGA: Discantus (s. 72v-73r, skan 0075), Tenor (s. 50v-51r, skan 0223), Bassus (s. 67v-68v, skan 0371-0372)
!!!key: d:dor
**kern	**text	**kern	**text	**kern	**text
*part3	*part3	*part2	*part2	*part1	*part1
*staff3	*staff3	*staff2	*staff2	*staff1	*staff1
*I"Bassus	*	*I"Tenor	*	*I"Discantus	*
*I'B	*	*I'T	*	*I'A	*
*Ibass	*	*Itenor	*	*Ialto	*
*ICvox	*	*ICvox	*	*ICvox	*
*clefF4	*	*clefC4	*	*clefC3	*
*k[]	*	*k[]	*	*k[]	*
*d:dor	*	*d:dor	*	*d:dor	*
=1-	=1-	=1-	=1-	=1-	=1-
*lig	*	*lig	*	*lig	*
1D	A-	1D	A-	1d	A-
1AA	.	1E	.	1c	.
*Xlig	*	*Xlig	*	*Xlig	*
=2-	=2-	=2-	=2-	=2-	=2-
*lig	*	*lig	*	*lig	*
1D	.	1F	.	1d	.
1AA	.	1E	.	1e	.
*Xlig	*	*Xlig	*	*Xlig	*
=3-	=3-	=3-	=3-	=3-	=3-
*	*	*lig	*	*lig	*
1A	.	1F	.	1c	.
0F	.	1D	.	1d	.
*	*	*Xlig	*	*Xlig	*
=4-	=4-	=4-	=4-	=4-	=4-
*	*	*lig	*	*	*
.	.	1A	.	1c	.
1D	.	1F	.	1d	.
*	*	*Xlig	*	*	*
=5-	=5-	=5-	=5-	=5-	=5-
*	*	*lig	*	*lig	*
0BB	.	1D	.	1f	.
.	.	1F	.	1d	.
*	*	*Xlig	*	*Xlig	*
=6-	=6-	=6-	=6-	=6-	=6-
*lig	*	*lig	*	*lig	*
1C	.	1E	.	1c	.
1BB	.	1F	.	1d	.
*Xlig	*	*Xlig	*	*Xlig	*
=7-	=7-	=7-	=7-	=7-	=7-
1GG	.	1G	.	1B	.
*	*	*lig	*	*	*
1D	-gnus	1F	-gnvs	2A/	.
.	.	.	.	1d\	.
=8-	=8-	=8-	=8-	=8-	=8-
1AA	.	1E	.	.	.
.	.	.	.	2c/	.
*	*	*Xlig	*	*	*
!	!	!LO:SIC:v:t=custos G	!	!LO:SIC:v:t=custos e	!
1D	de	1D	.	1d	-gnvs
!	!	!LO:LB:g=original	!	!LO:LB:g=original	!
=9-	=9-	=9-	=9-	=9-	=9-
*lig	*	*lig	*	*lig	*
1C	.	1G	de-	1e	de-
1F	.	1A	.	1c	.
*Xlig	*	*Xlig	*	*Xlig	*
=10-	=10-	=10-	=10-	=10-	=10-
*	*	*lig	*	*	*
0D	.	1F	.	1d	.
.	.	1A	.	1f	.
*	*	*Xlig	*	*	*
=11-	=11-	=11-	=11-	=11-	=11-
!LO:SIC:v:t=custos G	!	!	!	!	!
*	*	*lig	*	*	*
1C	.	1c	.	1e	.
!LO:PB:g=original	!	!	!	!	!
*lig	*	*	*	*	*
1G	.	1B	.	2d/	.
.	.	.	.	2e/	.
*	*	*Xlig	*	*	*
=12-	=12-	=12-	=12-	=12-	=12-
*	*	*lig	*	*	*
1F	.	1A	.	1f	.
*Xlig	*	*	*	*	*
*lig	*	*	*	*	*
1G	.	1B	.	1d	.
*	*	*Xlig	*	*	*
=13-	=13-	=13-	=13-	=13-	=13-
1E	.	1c	.	1e	.
*Xlig	*	*	*	*	*
0D,	.	1d	-i	1A	-i
=14-	=14-	=14-	=14-	=14-	=14-
*	*	*lig	*	*lig	*
.	.	1d	qvi	1F	qvi
1GG	.	1B	.	1G	.
*	*	*Xlig	*	*Xlig	*
=15-	=15-	=15-	=15-	=15-	=15-
*lig	*	*lig	*	*lig	*
1AA	.	1c	.	1E	.
1FF	.	1A	.	1F	.
*Xlig	*	*Xlig	*	*Xlig	*
=16-	=16-	=16-	=16-	=16-	=16-
*lig	*	*lig	*	*lig	*
1C	.	1c	.	1E	.
1FF	.	1A	.	1F	.
*Xlig	*	*Xlig	*	*Xlig	*
=17-	=17-	=17-	=17-	=17-	=17-
*	*	*lig	*	*	*
!	!	!	!	!LO:SIC:v:t=custos G	!
1F	.	1F	.	1A	tol-
!	!	!	!	!LO:LB:g=original	!
*lig	*	*	*	*	*
!	!	!LO:SIC:v:t=custos F	!	!	!
1C	.	1E	.	1G	.
*	*	*Xlig	*	*	*
!	!	!LO:LB:g=original	!	!	!
=18-	=18-	=18-	=18-	=18-	=18-
*	*	*lig	*	*	*
1FF	.	1F	.	1A	.
*Xlig	*	*	*	*	*
1GG	.	1D	.	1B	-lis
*	*	*Xlig	*	*	*
=19-	=19-	=19-	=19-	=19-	=19-
*	*	*lig	*	*	*
1AA	.	1A	.	1c	pec-
1D	.	1F	.	1d	-ca-
*	*	*Xlig	*	*	*
=20-	=20-	=20-	=20-	=20-	=20-
*	*	*lig	*	*lig	*
1BB	.	1D	.	1f	-ta
!LO:SIC:v:t=custos C	!	!	!	!	!
1BB	.	1F	.	1d	.
*	*	*Xlig	*	*Xlig	*
!LO:LB:g=original	!	!	!	!	!
=21-	=21-	=21-	=21-	=21-	=21-
*lig	*	*	*	*lig	*
1C	.	1E	tol-	1c	mun-
*	*	*lig	*	*	*
1BB	.	1F	.	1d	.
*Xlig	*	*	*	*Xlig	*
=22-	=22-	=22-	=22-	=22-	=22-
1GG	.	1G	.	1B	.
*lig	*	*Xlig	*	*	*
*	*	*lig	*	*	*
1D	.	1F	-lis	2A/	.
.	.	.	.	1d\	.
=23-	=23-	=23-	=23-	=23-	=23-
1AA	.	1E	.	.	.
.	.	.	.	2c/	.
*Xlig	*	*Xlig	*	*	*
1D	.	1D	.	1d	-di
=24-	=24-	=24-	=24-	=24-	=24-
*	*	*lig	*	*lig	*
1C	.	1G	pec-	1e	mi-
*lig	*	*	*	*	*
!	!	!	!	!LO:SIC:v:t=custos d	!
1F	.	1A	.	1c	.
*	*	*Xlig	*	*Xlig	*
!	!	!	!	!LO:PB:g=original	!
=25-	=25-	=25-	=25-	=25-	=25-
*	*	*lig	*	*	*
1D	.	1F	-ca-	1d	-ſe-
*Xlig	*	*	*	*	*
*lig	*	*	*	*	*
1D	.	1A	.	1f	-re-
*	*	*Xlig	*	*	*
=26-	=26-	=26-	=26-	=26-	=26-
1C	.	1c	.	1e	-re
*Xlig	*	*	*	*	*
*lig	*	*	*	*	*
!	!	!LO:SIC:v:t=custos A	!	!	!
1G	.	1B	.	2d/	.
.	.	.	.	2e/	.
!	!	!LO:LB:g=original	!	!	!
=27-	=27-	=27-	=27-	=27-	=27-
1F	.	1A	-ta	1f	.
*Xlig	*	*lig	*	*	*
1G	.	1B	mun-	1d	.
=28-	=28-	=28-	=28-	=28-	=28-
1E	.	1c	.	1e	.
*	*	*Xlig	*	*	*
1D	.	1d	-di	1A	.
=29-	=29-	=29-	=29-	=29-	=29-
*lig	*	*	*	*	*
1D	.	1d	mi-	1F	No-
1GG	.	1B	-se-	1G	.
*Xlig	*	*	*	*	*
=30-	=30-	=30-	=30-	=30-	=30-
!LO:SIC:v:t=custos FF	!	!	!	!	!
1AA	.	1c	-re-	1E	.
!LO:LB:g=original	!	!	!	!	!
1FF	.	1A	-re	1F	.
=31-	=31-	=31-	=31-	=31-	=31-
*lig	*	*lig	*	*	*
1C	.	1c	No-	1E	.
!	!	!	!	!LO:SIC:v:t=custos A	!
1FF	.	1A	.	1F	.
*Xlig	*	*Xlig	*	*	*
!	!	!	!	!LO:LB:g=original	!
=32-	=32-	=32-	=32-	=32-	=32-
*	*	*lig	*	*lig	*
1F	.	1F	.	1A	.
*lig	*	*	*	*	*
1C	.	1E	.	1G	.
*	*	*Xlig	*	*Xlig	*
=33-	=33-	=33-	=33-	=33-	=33-
*	*	*lig	*	*	*
1FF	.	1F	.	1A	.
*Xlig	*	*	*	*	*
1GG	.	1D	.	1B	.
*	*	*Xlig	*	*	*
=34-	=34-	=34-	=34-	=34-	=34-
*	*	*lig	*	*	*
1AA	.	1A	.	1c	.
1D	.	1F	.	1d	.
*	*	*Xlig	*	*	*
=35-	=35-	=35-	=35-	=35-	=35-
!	!	!LO:SIC:v:t=custos F	!	!	!
*	*	*	*	*lig	*
0BB	.	1D	.	1f	.
!	!	!LO:LB:g=original	!	!	!
*	*	*lig	*	*	*
.	.	1F	.	1d	.
*	*	*	*	*Xlig	*
=36-	=36-	=36-	=36-	=36-	=36-
*lig	*	*	*	*	*
1C	.	1E	.	1c	.
*	*	*Xlig	*	*	*
1BB	.	1F	.	1d	.
*Xlig	*	*	*	*	*
=37-	=37-	=37-	=37-	=37-	=37-
1GG	.	1G	.	1B	.
*lig	*	*lig	*	*	*
1D	.	1F	-bis	2A/	.
.	.	.	.	1d\	.
=38-	=38-	=38-	=38-	=38-	=38-
1AA	.	1E	.	.	.
.	.	.	.	2c/	.
*Xlig	*	*Xlig	*	*	*
!LO:SIC:v:t=custos D	!	!	!	!	!
1lD;	.	1lD;	.	1d;l	-bis
!LO:LB:g=original	!	!	!	!	!
=39||	=39||	=39||	=39||	=39||	=39||
1D	A-	1d	A-	1F	A-
!	!	!	!	!LO:SIC:v:t=custos E	!
1GG	-gnus	1B	-gnus	1G	-gnus
!	!	!	!	!LO:LB:g=original	!
=40-	=40-	=40-	=40-	=40-	=40-
*	*	*	*	*lig	*
1AA	de-	1c	de-	1E	de-
1FF	-i	1A	-i	1F	-i
*	*	*	*	*Xlig	*
=41-	=41-	=41-	=41-	=41-	=41-
*lig	*	*lig	*	*lig	*
1C	qvi	1c	qvi	1E	qvi
1FF	.	1A	.	1F	.
*Xlig	*	*Xlig	*	*Xlig	*
=42-	=42-	=42-	=42-	=42-	=42-
*lig	*	*lig	*	*lig	*
1F	.	1F	.	1A	tol-
!	!	!LO:SIC:v:t=custos F	!	!	!
1C	.	1E	.	1G	.
*Xlig	*	*Xlig	*	*Xlig	*
!	!	!LO:PB:g=original	!	!	!
=43-	=43-	=43-	=43-	=43-	=43-
*	*	*lig	*	*	*
1FF	.	1F	.	1A	.
1GG	.	1D	.	1B	-lis
*	*	*Xlig	*	*	*
=44-	=44-	=44-	=44-	=44-	=44-
*	*	*lig	*	*	*
1AA	.	1A	.	1c	pec-
1D	.	1F	.	1d	-ca-
*	*	*Xlig	*	*	*
=45-	=45-	=45-	=45-	=45-	=45-
*	*	*lig	*	*lig	*
0BB	.	1D	.	1f	-ta
.	.	1F	.	1d	.
*	*	*Xlig	*	*Xlig	*
=46-	=46-	=46-	=46-	=46-	=46-
*lig	*	*	*	*lig	*
1C	tol-	1E	tol-	1c	mu(n)-
*	*	*lig	*	*	*
1BB	.	1F	.	1d	.
*Xlig	*	*	*	*Xlig	*
=47-	=47-	=47-	=47-	=47-	=47-
!LO:SIC:v:t=custos D	!	!	!	!	!
1GG	.	1G	.	1B	.
*	*	*Xlig	*	*	*
!LO:LB:g=original	!	!	!	!	!
*	*	*lig	*	*	*
1D	-lis	1F	-lis	2A/	.
.	.	.	.	1d\	.
=48-	=48-	=48-	=48-	=48-	=48-
*lig	*	*	*	*	*
1AA	.	1E	.	.	.
.	.	.	.	2c/	.
*	*	*Xlig	*	*	*
!	!	!	!	!LO:SIC:v:t=custos e	!
1D	.	1D	.	1d	-di
*Xlig	*	*	*	*	*
!	!	!	!	!LO:LB:g=original	!
=49-	=49-	=49-	=49-	=49-	=49-
*lig	*	*lig	*	*lig	*
1C	pec	1G	pec-	1e	mi-
1F	.	1A	.	1c	.
*Xlig	*	*Xlig	*	*Xlig	*
=50-	=50-	=50-	=50-	=50-	=50-
*	*	*lig	*	*	*
1D	.	1F	-ca-	1d	-se-
*	*	*	*	*lig	*
1D	.	1A	.	1f	-re-
*	*	*Xlig	*	*	*
=51-	=51-	=51-	=51-	=51-	=51-
*	*	*lig	*	*	*
1C	.	1c	.	1e	.
*lig	*	*	*	*Xlig	*
!	!	!LO:SIC:v:t=custos A	!	!	!
1G	.	1B	.	2d/	.
.	.	.	.	2e/	.
*	*	*Xlig	*	*	*
!	!	!LO:LB:g=original	!	!	!
=52-	=52-	=52-	=52-	=52-	=52-
1F	.	1A	-ta	1f	.
*Xlig	*	*	*	*	*
1G	.	1B	mun-	1d	.
=53-	=53-	=53-	=53-	=53-	=53-
*lig	*	*lig	*	*lig	*
1E	.	1c	-di	1e	-re
1D	.	1d	.	1A	.
*Xlig	*	*Xlig	*	*Xlig	*
=54-	=54-	=54-	=54-	=54-	=54-
*lig	*	*	*	*lig	*
1D	.	1d	mi-	1F	No-
1GG	.	1B	-se-	1G	.
*Xlig	*	*	*	*Xlig	*
=55-	=55-	=55-	=55-	=55-	=55-
*lig	*	*	*	*lig	*
1AA	.	1d	-re-	1E	.
1FF	.	1B	-re	1F	.
*Xlig	*	*	*	*Xlig	*
=56-	=56-	=56-	=56-	=56-	=56-
*lig	*	*	*	*lig	*
1C	.	1c	No-	1E	.
!LO:SIC:v:t=custos F:s=custos G	!	!	!	!	!
1FF	.	1A	.	1F	.
*Xlig	*	*	*	*Xlig	*
!LO:PB:g=original	!	!	!	!	!
=57-	=57-	=57-	=57-	=57-	=57-
*lig	*	*lig	*	*lig	*
1G	.	1F	.	1A	.
1C	.	1E	.	1G	.
*Xlig	*	*Xlig	*	*Xlig	*
=58-	=58-	=58-	=58-	=58-	=58-
*lig	*	*lig	*	*	*
1FF	.	1F	.	1A	.
!	!	!LO:SIC:v:t=custos A	!	!LO:SIC:v:t=custos c	!
1GG	.	1D	.	1B	.
*Xlig	*	*Xlig	*	*	*
!	!	!LO:LB:g=original	!	!LO:LB:g=original	!
=59-	=59-	=59-	=59-	=59-	=59-
*lig	*	*lig	*	*	*
1AA	.	1A	.	1c	.
1D	.	1F	.	1d	.
*Xlig	*	*Xlig	*	*	*
=60-	=60-	=60-	=60-	=60-	=60-
*	*	*lig	*	*lig	*
0BB	.	1D	.	1f	.
.	.	1F	.	1d	.
*	*	*Xlig	*	*Xlig	*
=61-	=61-	=61-	=61-	=61-	=61-
1C	.	1E	.	1c	.
*lig	*	*	*	*lig	*
1BB	.	1F	.	1d	.
=62-	=62-	=62-	=62-	=62-	=62-
1GG	.	1G	.	1B	.
*Xlig	*	*	*	*Xlig	*
*lig	*	*	*	*	*
1D	.	1F	.	2A/	.
.	.	.	.	1d\	.
=63-	=63-	=63-	=63-	=63-	=63-
1AA	.	1E	.	.	.
.	.	.	.	2c/	.
*Xlig	*	*	*	*	*
!LO:SIC:v:t=custos D	!	!LO:SIC:v:t=custos D	!	!LO:SIC:v:t=custos d	!
1D;l	.	1D;l	-bis	1d;;l	-bis
==	==	==	==	==	==
*-	*-	*-	*-	*-	*-
!!!system-decoration: [(s1,s2,s3)]
!!!RDF**kern: l = terminal long
!!!AIN: 1 alto 1 bass 1 tenor
!!!ENC: Filip Voros
!!!END: 2022-01-03
!!!ENC: Marta Lawrence
!!!END: 2022-01-07
